X: 12611
T: Farewell To Westport
R: jig
M: 6/8
K: Gminor
|:DGG G^FG|ABc d2^f|gdd edc|BdB ABA|
DGG G^FG|ABc d2^f|gdd edc|~B2A G3:|
|:g2a bag|agf ~d3|Bdg Acf|GBd ^FAd|
DGG G^FG|ABc d2^f|gdd edc|~B2A G3:|

